X:170
T:Slow March. Le4.170
Q:1/4=100
L:1/8
B:L.Leadley MS#4 c1850
Z:vmp.Mike Hicken 2015 www.village-music-project.org.uk
N: * This rest is not in the original but has been added to give the correct bar length.
M:C|
K:G
"*"z2|!f!d4g4|e4a4|g>fe>a g2f2|.g2.g2z4|a4f4|d4B2g2|f2g>e d2 f>e|.d2.d2z2 (d/c/B/A/)|
!p! B>cd>e d2B2|G2z2 z.G.A.B|c>Bc>d c2e2|A4 z2 !f!B>c|d4g4|e4a4|g>fe>a g2f2|g2 g>g g2 :|
!p!e>d|d>cB>A G4|F2 G>A B2 c>A|A>GA>B c>ed>c|B>AB>c d2 e>d|
d>cB>A G4|D2 G>A B2 c>B|A>GA>B c>ed>B|B4 z2 !ff!B>c|
d2 d>d d2d2|e4e2e2|d2 e>d c2 d>c|B4z2B>c|d2 d>d d2d2|e4e2e2|d>dc>c B>BA>A|GA/B/ c/d/e/f/ g>gg>g|
e4 e>ee>e|d>dc>c B>BA>A|GA/B/ (c/d/e/f/) g>gg>g|e4e2e2|d2g2a2f2|g2g2g2 :|
|:!p!G2|G4e4|c4z2 c>B|A2A2 A>cB>A|A2G2z2G2|G4e4|A4d4|G>^FG>A B>cd>B|c2c2c2 "_Da Capo":|

